X:10006
T:Jamaica
R:Reel
C:Trad. Playford 1665
O:England
Z:Paul Hardy's Session Tunebook 2015 (see www.paulhardy.net). Creative Commons cc by-nc-sa licenced.
M:4/4
L:1/8
Q:1/4=180
K:G
"G"G2 B2 B2 cd|"C"e2 d2 e4|"G"d2 B2 B2 AG|"D"A2A2 "G"G4|"G"G2 B2 B2 cd|"C"e2 d2 e4|"G"d2 B2 B2 AG|"D"A4 "G"G4||
|:"G"g2 g2 "D"f2 ed|"C" e2 e2 "G"d2 B2|"G" g2 g2 "D" fg a2|"A" e4 "D"d4|"G"g2 g2 "D"f2 ed|"C" e2 e2"G" d2 B2|"C"cd e2"G"d2 cB|"D" A4 "G" G4:|

